!!!OTL: Jungfer Doertchen Es ritt ein Ritter sehr wohlgemut,
!!!ARE: Europa, Mitteleuropa, Deutschland (), Sachsen, Altmark
!!!YOR: 3, S. 104
!!    1879 gedruckt in Magdeburg
!!!SCT: Q0057Z
!!!YEM: Copyright 1995, estate of Helmut Schaffrath.
**kern
*ICvox
*Ivox
*M4/4
*k[f#]
*G:
{4d
=1
4g
4d
4b
8a
8g
=2
8f#
8a
8a
8b
4a}
{8d
8f#
=3
4a
8a
8a
4dd
8cc
8a
=4
8b
8g
4g
8g
8a}
{8b
8g
=5
4e
8e
8e
4g}
{8f#
8e
=6
8e
8d
4d
4d}
{4cc
=7
4cc
8cc
8a
4g
4f#
=8
8a
8g
4g
4g}
==
!!!AGN: Ballade, Todesahnung, Tod, Selbstmord
!! Dritte und vierte Zeile = Refrain auf sinnfreie Silben.
!!!ONB: ESAC (Essen Associative Code) Database: BALLADE
!!!AMT: simple quadruple
!!!AIN: vox
!!!EED: Helmut Schaffrath
!!!EEV: 1.0
*-
